images/business-set1-03.svg

<?xml version="1.0" encoding="UTF-8" standalone="no"?>
<svg width="80px" height="80px" viewBox="0 0 80 80" version="1.1" xmlns="http://www.w3.org/2000/svg" xmlns:xlink="http://www.w3.org/1999/xlink" xmlns:sketch="http://www.bohemiancoding.com/sketch/ns">
    <!-- Generator: Sketch 3.3.3 (12081) - http://www.bohemiancoding.com/sketch -->
    <title>business-set1-03</title>
    <desc>Created with Sketch.</desc>
    <defs></defs>
    <g id="Page-1" stroke="none" stroke-width="1" fill="none" fill-rule="evenodd" sketch:type="MSPage">
        <g id="business-set1-03" sketch:type="MSArtboardGroup" fill="#CD2122">
            <path d="M34.4878835,51.6473694 L30.0722341,51.6473694 C30.3479299,50.9015198 30.5386648,50.1261902 30.6413259,49.3295593 L33.2052907,49.2810364 L30.1112966,46.3026428 L30.0989675,46.3154602 L27.1321706,49.3959656 L29.625945,49.3487854 C29.3789968,51.0569763 28.7015676,52.6681213 27.6089772,54.0233459 C25.4351491,56.7157287 21.964446,58.0458069 18.5396413,57.4877014 C18.2761525,57.4468078 18.0262136,57.6203918 17.9736013,57.8820495 C17.9378957,57.8744201 17.9033498,57.8636779 17.8677663,57.8556213 L17.8677663,64.6371154 C17.8677663,64.9134826 18.0913991,65.1371154 18.3677663,65.1371154 L34.4878835,65.1371154 C34.7642507,65.1371154 34.9878835,64.9134826 34.9878835,64.6371154 L34.9878835,52.1473694 C34.9878835,51.8710022 34.7642507,51.6473694 34.4878835,51.6473694 L34.4878835,51.6473694 Z M33.9878835,64.1371155 L18.8677663,64.1371155 L18.8677663,58.5342102 C19.2739553,58.5810242 19.6802053,58.6127014 20.0845632,58.6127014 C23.2759694,58.6127014 26.3501882,57.1752014 28.3872976,54.6512756 C28.8872366,54.0308532 29.287261,53.3512878 29.6336355,52.6473694 L33.9878835,52.6473694 L33.9878835,64.1371155 L33.9878835,64.1371155 Z M52.4546804,39.1610412 L52.4517507,39.1610412 L36.4312429,39.259674 C36.1558523,39.2611388 35.9341726,39.4847717 35.9341726,39.759674 L35.9341726,64.7352599 C35.9341726,64.8685607 35.986907,64.9960021 36.0816335,65.0897521 C36.1753835,65.1830138 36.3023366,65.2352599 36.4341726,65.2352599 L36.4371023,65.2352599 L52.4576101,65.1371154 C52.7330007,65.1356506 52.9546804,64.9120177 52.9546804,64.6371154 L52.9546804,39.6610412 C52.9546804,39.5277404 52.901946,39.400299 52.8072195,39.306549 C52.7134694,39.2132873 52.5865163,39.1610412 52.4546804,39.1610412 L52.4546804,39.1610412 Z M51.9546804,64.1400451 L36.9341726,64.2323303 L36.9341726,40.2567444 L51.9546804,40.163971 L51.9546804,64.1400451 L51.9546804,64.1400451 Z M70.0445241,27.5687561 L54.3619069,27.5687561 C54.0855397,27.5687561 53.8619069,27.7923889 53.8619069,28.0687561 L53.8619069,64.6371155 C53.8619069,64.9134827 54.0855397,65.1371155 54.3619069,65.1371155 L70.0445241,65.1371155 C70.3208913,65.1371155 70.5445241,64.9134827 70.5445241,64.6371155 L70.5445241,28.0687561 C70.5445241,27.7923889 70.3208913,27.5687561 70.0445241,27.5687561 L70.0445241,27.5687561 Z M69.5445241,64.1371155 L54.8619069,64.1371155 L54.8619069,28.5687561 L69.5445241,28.5687561 L69.5445241,64.1371155 L69.5445241,64.1371155 Z M18.8578176,40.8982849 L14.900115,39.2530212 L14.8922415,39.2497863 L16.5397635,35.2837829 L17.5161429,37.6486511 C19.8619071,37.0630188 22.3130179,37.2910461 24.4774466,38.2666931 L35.899993,25.4281311 C36.0025321,25.3128967 36.1470633,25.2528381 36.306243,25.2616272 C36.4595633,25.2713928 36.6001883,25.351471 36.6871024,25.4789124 L43.9771415,36.1610413 L58.9615165,17.1669007 L57.7880546,16.2411805 L61.4932548,14.7647401 L60.9198905,18.7118837 L59.7465507,17.7862245 L44.3404226,37.3148498 C44.2427664,37.4408264 44.0953054,37.5189514 43.9302664,37.5047912 C43.7710867,37.4994201 43.6246023,37.4183654 43.5347586,37.2870178 L36.2222586,26.5711975 L25.3927297,38.7435608 C25.8757619,39.0205383 26.3467092,39.3221741 26.7867116,39.6771546 C28.245696,40.8539124 29.3697194,42.3968812 30.0386647,44.1385804 C30.1372975,44.3963929 30.0083913,44.6854554 29.7505788,44.7845765 C29.7464284,44.7861634 29.7420949,44.785492 29.7378835,44.7869569 C29.683257,44.8063661 29.6272268,44.8177797 29.5718679,44.8177797 C29.370696,44.8177797 29.1812429,44.6957094 29.105071,44.4969789 C28.4996022,42.9193422 27.480071,41.5218812 26.1587819,40.455475 C23.8419484,38.5866396 20.7915944,37.913727 17.9030446,38.585724 L18.8578176,40.8982849 L18.8578176,40.8982849 Z M15.5690603,53.5353699 L16.9275198,57.5956726 L16.9316702,57.6080627 L12.8592825,58.9717102 L14.0017386,56.679718 C13.8035574,56.5406799 13.6037894,56.4051819 13.4126883,56.250885 C8.84237578,52.563385 8.12557888,45.8460998 11.8130789,41.2767639 C12.1783133,40.8226623 12.5855398,40.3944397 13.0230398,40.004303 C13.230071,39.820221 13.5455007,39.8387757 13.7290945,40.0453186 C13.7336111,40.0504456 13.7347097,40.0570374 13.7389822,40.0622864 C13.9084158,40.2683411 13.8899832,40.5718689 13.6890554,40.7513733 C13.2915945,41.1048889 12.9224538,41.4925842 12.5913992,41.9042053 C10.9722586,43.9100647 10.2320242,46.426178 10.5054617,48.988678 C10.7798758,51.5516663 12.0347586,53.8544007 14.0406179,55.4725647 C14.1745901,55.580658 14.3158865,55.6731262 14.4537038,55.7729797 L15.5690603,53.5353699 L15.5690603,53.5353699 Z M21.0761403,49.3708191 C21.0761403,48.9587097 20.8244313,48.7691345 20.3327321,48.6355286 L18.9212331,48.2568665 C17.8127736,47.9558411 17.0444631,47.4544373 17.0444631,46.195221 C17.0444631,45.0365906 17.9642019,44.2566834 19.2490529,44.033722 L19.2490529,43.3206483 L21.0505055,43.3206483 L21.0505055,43.9891053 C21.4668263,44.0224915 22.0207203,44.111786 22.7392872,44.2675477 L22.3733814,45.7609559 C21.1141651,45.4933778 20.5470875,45.4044496 20.0049122,45.4044496 C19.4253834,45.4044496 19.047881,45.66037 19.047881,46.1843568 C19.047881,46.5183412 19.2871388,46.7079164 19.8161305,46.8527528 L21.2275685,47.2314759 C22.3236989,47.5212098 23.1043385,48.0785828 23.1043385,49.2931214 C23.1043385,50.5853577 22.1341237,51.3431092 20.7863453,51.5660706 L20.7863453,52.2791443 L18.9849537,52.2791443 L18.9849537,51.5994568 C18.4932545,51.5435486 17.8888844,51.4211731 17.0320728,51.1426697 L17.4725025,49.660553 C19.1985767,50.1285706 19.5768726,50.1619568 20.1439503,50.1619568 C20.7739553,50.1619568 21.0761403,49.8613586 21.0761403,49.3708191 L21.0761403,49.3708191 Z" id="Shape" sketch:type="MSShapeGroup"></path>
        </g>
    </g>
</svg>

<svg width="80" height="80" xmlns="http://www.w3.org/2000/svg"><g id="Page-1" stroke="none" stroke-width="1" fill="none" fill-rule="evenodd"><g id="business-set1-03" fill="#CD2122"><path d="M34.488 51.647h-4.416c.276-.745.467-1.52.57-2.317l2.563-.049-3.094-2.978-.012.012-2.967 3.081 2.494-.047a9.601 9.601 0 01-2.017 4.674 9.674 9.674 0 01-9.07 3.465.5.5 0 00-.565.394l-.106-.026v6.781a.5.5 0 00.5.5h16.12a.5.5 0 00.5-.5v-12.49a.5.5 0 00-.5-.5zm-.5 12.49h-15.12v-5.603c.406.047.812.079 1.217.079 3.191 0 6.265-1.438 8.302-3.962.5-.62.9-1.3 1.247-2.004h4.354v11.49zm18.467-24.976h-.003l-16.02.099a.5.5 0 00-.498.5v24.975a.498.498 0 00.5.5h.003l16.02-.098a.5.5 0 00.498-.5V39.661a.498.498 0 00-.5-.5zm-.5 24.979l-15.02.092V40.257l15.02-.093V64.14zm18.09-36.571H54.362a.5.5 0 00-.5.5v36.568a.5.5 0 00.5.5h15.683a.5.5 0 00.5-.5V28.07a.5.5 0 00-.5-.5zm-.5 36.568H54.862V28.57h14.683v35.568zM18.858 40.898L14.9 39.253l-.008-.003 1.648-3.966.976 2.365a10.656 10.656 0 016.961.618L35.9 25.428a.5.5 0 01.787.05l7.29 10.683 14.985-18.994-1.174-.926 3.705-1.476-.573 3.947-1.173-.926L44.34 37.315a.467.467 0 01-.41.19.5.5 0 01-.395-.218l-7.313-10.716-10.83 12.173c.484.277.955.578 1.395.933a10.643 10.643 0 013.252 4.462.5.5 0 01-.288.646c-.005.001-.009 0-.013.002a.5.5 0 01-.633-.29 9.644 9.644 0 00-2.946-4.042 9.66 9.66 0 00-8.256-1.87l.955 2.313zm-3.289 12.637l1.359 4.06.004.013-4.073 1.364 1.143-2.292c-.198-.14-.398-.275-.59-.43-4.57-3.687-5.286-10.404-1.599-14.973.365-.454.773-.883 1.21-1.273a.5.5 0 01.706.041c.005.005.006.012.01.017.17.206.151.51-.05.69a9.597 9.597 0 00-1.098 1.152 9.586 9.586 0 00-2.086 7.085 9.586 9.586 0 003.536 6.484c.134.108.275.2.413.3l1.115-2.238zm5.507-4.164c0-.412-.252-.602-.743-.735l-1.412-.38c-1.108-.3-1.877-.802-1.877-2.06 0-1.16.92-1.94 2.205-2.162v-.713h1.802v.668c.416.033.97.123 1.688.279l-.366 1.493c-1.259-.268-1.826-.357-2.368-.357-.58 0-.957.256-.957.78 0 .334.24.524.768.669l1.412.378c1.096.29 1.876.848 1.876 2.062 0 1.292-.97 2.05-2.318 2.273v.713h-1.801v-.68c-.492-.055-1.096-.178-1.953-.456l.44-1.482c1.727.468 2.105.501 2.672.501.63 0 .932-.3.932-.791z" id="Shape"/></g></g></svg>
